!!!!SEGMENT: pl-sa--230-a-vi-34--005_luna-georgius--litania-mater-christi.krn
!!!cenid: 17xx:499
!!!COM: Luna, Georgius
!!!COM-rismid: pe41010079
!!!CDT:
!!!CNT:
!!!OTL: Litania – Mater Christi
!!!PDT:
!!!AGN: Sacred; Mass
!!!SMS-siglum: PL-SA
!!!SMS-shelfmark: 230/A VI 34
!!!SMS-shelfwork: 001-005 M
!!!SMS-variant:
!!!SMS-altvar:
!!!NIFC-rismid: 1001070084
!!!URL-scan: http://bc.bdsandomierz.pl/dlibra/publication/1606/edition/1574/content
!!!ONB-nifc: UWAGA: części Litanii: Simphonia, Kirie, Pater de caelis, Sancta Maria, Mater Christi, Mater amabilis, Virgo prudentissima, Speculum, Rosa mistica, Salus infirmorum, Regina angelorum, Agnus Dei
**kern	**dynam	**kern	**dynam	**kern	**dynam	**kern	**kern	**text	**kern	**kern
*part7	*part7	*part6	*part6	*part5	*	*part4	*part3	*part3	*part2	*part1
*staff7	*	*staff6	*	*staff5	*	*staff4	*staff3	*staff3	*staff2	*staff1
*I"Basso continuo	*	*I"Violino 2do.	*	*I"Violino Primo	*	*I"Tenore	*I"Canto	*	*I"Clarino 2do ex C	*I"Clarino 1mo ex C
*I'B.c.	*	*I'V-no II	*	*I'V-no I	*	*I'T.	*I'C.	*	*I'Cl. II	*I'Cl. I
*clefF4	*	*clefG2	*	*clefG2	*	*clefC4	*clefC1	*	*clefG2	*clefG2
*Trd0c0	*	*	*	*	*	*	*	*	*	*
*k[f#]	*	*k[f#]	*	*k[f#]	*	*k[f#]	*k[f#]	*	*k[f#]	*k[f#]
*G:	*	*G:	*	*G:	*	*G:	*G:	*	*G:	*G:
*M2/4	*	*M2/4	*	*M2/4	*	*M2/4	*M2/4	*	*M2/4	*M2/4
=1	=1	=1	=1	=1	=1	=1	=1	=1	=1	=1
*	*	*	*	*	*below	*	*	*	*	*
!LO:TX:t=P:problem:all\right:global	!	!	!	!	!	!	!	!	!	!
!LO:TX:b:t=Mater Christi	!	!	!	!	!	!	!	!	!	!
!LO:TX:a:t=All(egr)o	!	!LO:TX:t=P:problem:all\right:global	!	!LO:TX:t=P:problem:all\right:global	!	!LO:TX:a:t=Tacet	!	!	!LO:TX:a:t=Tacet	!LO:TX:a:t=Tacet
!	!	!	!	!	!	!	!LO:N:vis=00	!	!	!
8G\L	.	4G/ 4b/ 4gg/	.	4G/ 4b/ 4gg/	.	2ryy	0r	.	2ryy	2ryy
8B\	.	.	.	.	.	.	.	.	.	.
8F#\	.	4dd\	.	4dd\	.	.	.	.	.	.
8D\J	.	.	.	.	.	.	.	.	.	.
=2	=2	=2	=2	=2	=2	=2	=2	=2	=2	=2
*	*	*Xtuplet	*	*	*	*	*	*	*	*
!	!	!	!	!LO:TUP:b	!	!	!	!	!	!
!	!	!	!	!LO:TUP:a:problem:klamra łukowa	!	!	!	!	!	!
8G\L	.	24b/LL	.	24b\LL	.	2ryy	.	.	2ryy	2ryy
.	.	24a/	.	24a/	.	.	.	.	.	.
.	.	24g/J	.	24g/J	.	.	.	.	.	.
8A\	.	8g/J	.	8g/J	.	.	.	.	.	.
8B\	.	8r	.	8r	.	.	.	.	.	.
8G\J	.	8dd\	.	8dd\	.	.	.	.	.	.
=3	=3	=3	=3	=3	=3	=3	=3	=3	=3	=3
*	*	*tuplet	*	*	*	*	*	*	*	*
!	!	!LO:TUP:a:problem:klamra łukowa	!	!LO:TUP:a:problem:klamra łukowa	!	!	!	!	!	!
!	!	!	!	!LO:TUP:a	!	!	!	!	!	!
8C/L	.	24ee\LL	.	24ee\LL	.	2ryy	.	.	2ryy	2ryy
.	.	24dd\	.	24dd\	.	.	.	.	.	.
.	.	24cc\J	.	24cc\J	.	.	.	.	.	.
8C/	.	8ccc\J	.	8ccc\J	.	.	.	.	.	.
*	*	*Xtuplet	*	*	*	*	*	*	*	*
!	!	!LO:TUP:a:problem:klamra łukowa	!	!LO:TUP:a:problem:klamra łukowa	!	!	!	!	!	!
8C/	.	24ee\LL	.	24ee\LL	.	.	.	.	.	.
.	.	24dd\	.	24dd\	.	.	.	.	.	.
.	.	24cc\J	.	24cc\J	.	.	.	.	.	.
8C/J	.	8ccc\J	.	8ccc\J	.	.	.	.	.	.
!	!	!	!	!LO:LB:g=original	!	!	!	!	!	!
=4	=4	=4	=4	=4	=4	=4	=4	=4	=4	=4
8G\L	.	16dd\LL	.	16dd\LL	.	2ryy	.	.	2ryy	2ryy
.	.	16b\JJ	.	16b\JJ	.	.	.	.	.	.
.	.	8qqa/	.	.	.	.	.	.	.	.
8G\	.	4g/	.	4g/	.	.	.	.	.	.
8G\	.	.	.	.	.	.	.	.	.	.
8G\J	.	8dd\	.	8dd\	.	.	.	.	.	.
!LO:LB:g=original	!	!	!	!	!	!	!	!	!	!
=5	=5	=5	=5	=5	=5	=5	=5	=5	=5	=5
!	!	!LO:TUP:a:problem:klamra łukowa	!	!LO:TUP:a:problem:klamra łukowa	!	!	!	!	!	!
!	!	!	!	!	!	!	!LO:N:vis=00	!	!	!
8D/L	.	24cc\LL	.	24cc\LL	.	2ryy	0r	.	2ryy	2ryy
.	.	24b\	.	24b\	.	.	.	.	.	.
.	.	24a\J	.	24a\J	.	.	.	.	.	.
8D/	.	8aa\J|	.	8aa\J	.	.	.	.	.	.
!	!	!LO:TUP:a:problem:klamra łukowa	!	!LO:TUP:a:problem:klamra łukowa	!	!	!	!	!	!
8D/	.	24cc\LL	.	24cc\LL	.	.	.	.	.	.
.	.	24b\	.	24b\	.	.	.	.	.	.
.	.	24a\J	.	24a\J	.	.	.	.	.	.
8D/J	.	8aa\J|	.	8aa\J	.	.	.	.	.	.
=6	=6	=6	=6	=6	=6	=6	=6	=6	=6	=6
*	*	*	*	*Xtuplet	*	*	*	*	*	*
!	!	!	!	!LO:TUP:a:problem:klamra łukowa	!	!	!	!	!	!
8G\L	.	24b\LL	.	24b/LL	.	2ryy	.	.	2ryy	2ryy
.	.	24a/	.	24a/	.	.	.	.	.	.
.	.	24g/JJ	.	24g/JJ	.	.	.	.	.	.
8A\	.	4g/	.	4g/	.	.	.	.	.	.
8B\	.	.	.	.	.	.	.	.	.	.
8G\J	.	8bb\	.	8bb\	.	.	.	.	.	.
!	!	!LO:LB:g=original	!	!	!	!	!	!	!	!
=7	=7	=7	=7	=7	=7	=7	=7	=7	=7	=7
!LO:TX:t=P:problem:mixed beam	!	!LO:TUP:a:problem:klamra łukowa	!	!LO:TUP:a:problem:klamra łukowa	!	!	!	!	!	!
8F#\L	.	24aa\LL	.	24aa\LL	.	2ryy	.	.	2ryy	2ryy
.	.	24gg\	.	24gg\	.	.	.	.	.	.
.	.	24ff#\J	.	24ff#\J	.	.	.	.	.	.
8D\	.	8aa\J|	.	8aa\J	.	.	.	.	.	.
!	!	!LO:TUP:a:problem:klamra łukowa	!	!LO:TUP:a:problem:klamra łukowa	!	!	!	!	!	!
8E\	.	24gg\LL	.	24gg\LL	.	.	.	.	.	.
.	.	24ff#\	.	24ff#\	.	.	.	.	.	.
.	.	24ee\J	.	24ee\J	.	.	.	.	.	.
8AA/J	.	8gg\J|	.	8gg\J	.	.	.	.	.	.
=8	=8	=8	=8	=8	=8	=8	=8	=8	=8	=8
8D\L	.	16ff#\LL	.	16ff#\LL	.	2ryy	.	.	2ryy	2ryy
.	.	16dd\	.	16dd\	.	.	.	.	.	.
8G\	.	16ddd\	.	16ddd\	.	.	.	.	.	.
.	.	16bb\JJ	.	16bb\JJ	.	.	.	.	.	.
8F#\	.	16aa\LL	.	16aa\LL	.	.	.	.	.	.
.	.	16ff#\	.	16ff#\	.	.	.	.	.	.
8G\J	.	16gg\	.	16gg\	.	.	.	.	.	.
.	.	16ee\JJ	.	16ee\JJ	.	.	.	.	.	.
=9	=9	=9	=9	=9	=9	=9	=9	=9	=9	=9
!LO:TX:t=P:problem:mixed beam	!	!	!	!	!	!	!	!	!	!
!	!	!	!	!	!	!	!LO:N:vis=00	!	!	!
8A\L	.	4dd\	.	4dd\	.	2ryy	0r	.	2ryy	2ryy
8A\	.	.	.	.	.	.	.	.	.	.
8AA/	.	4ee\M	.	4ee\	.	.	.	.	.	.
8AA/J	.	.	.	.	.	.	.	.	.	.
=10	=10	=10	=10	=10	=10	=10	=10	=10	=10	=10
8D\L	.	4dd\	.	4dd\	.	2ryy	.	.	2ryy	2ryy
16d\L	.	.	.	.	.	.	.	.	.	.
16c\JJ	.	.	.	.	.	.	.	.	.	.
8B\L	.	4r	.	4r	.	.	.	.	.	.
8A\J	.	.	.	.	.	.	.	.	.	.
=11	=11	=11	=11	=11	=11	=11	=11	=11	=11	=11
8G\L	.	4gg\	.	4gg\	.	2ryy	.	.	2ryy	2ryy
8B\	.	.	.	.	.	.	.	.	.	.
8F#\	.	4dd\	.	4dd\	.	.	.	.	.	.
8D\J	.	.	.	.	.	.	.	.	.	.
=12	=12	=12	=12	=12	=12	=12	=12	=12	=12	=12
*	*	*tuplet	*	*	*	*	*	*	*	*
!	!	!LO:TUP:a:problem:klamra łukowa	!	!	!	!	!	!	!	!
8G\L	.	24b\LL	.	24b/LL	.	2ryy	.	.	2ryy	2ryy
.	.	24a\	.	24a/	.	.	.	.	.	.
.	.	24g\J	.	24g/J	.	.	.	.	.	.
8A\	.	8g\J	.	8g/J	.	.	.	.	.	.
8B\	.	8r	.	8r	.	.	.	.	.	.
8B\J	.	8dd\	.	8dd\	.	.	.	.	.	.
=13	=13	=13	=13	=13	=13	=13	=13	=13	=13	=13
!LO:TX:t=P:problem:mixed beam	!	!	!	!	!	!	!	!	!	!
!	!	!	!	!	!	!	!LO:N:vis=00	!	!	!
8c\L	.	(32ee\LLL	.	32ee\LLL	.	2ryy	0r	.	2ryy	2ryy
.	.	32ff#\JJ)	.	32ff#\JJ	.	.	.	.	.	.
.	.	8.gg\J	.	8.gg\J	.	.	.	.	.	.
8C/	.	.	.	.	.	.	.	.	.	.
*	*	*Xtuplet	*	*	*	*	*	*	*	*
8C/	.	24ee\LL	.	24ee\LL	.	.	.	.	.	.
.	.	24dd\	.	24dd\	.	.	.	.	.	.
.	.	24cc\JJ	.	24cc\JJ	.	.	.	.	.	.
!	!	!	!	!LO:LB:g=original	!	!	!	!	!	!
8C/J	.	24b/LL	.	24b/LL	.	.	.	.	.	.
.	.	24a/	.	24a/	.	.	.	.	.	.
.	.	24g/JJ	.	24g/JJ	.	.	.	.	.	.
=14	=14	=14	=14	=14	=14	=14	=14	=14	=14	=14
8D\L	.	24f#/LL	.	24f#/LL	.	2ryy	.	.	2ryy	2ryy
.	.	24e/	.	24e/	.	.	.	.	.	.
.	.	24d/J	.	24d/J	.	.	.	.	.	.
8E\	.	8d/J	.	8d/J	.	.	.	.	.	.
8F#\	.	8r	.	8r	.	.	.	.	.	.
8D\J	.	8a/	.	8a/	.	.	.	.	.	.
=15	=15	=15	=15	=15	=15	=15	=15	=15	=15	=15
8GG/L	.	16b\LL	.	(16b\LL	.	2ryy	.	.	2ryy	2ryy
.	.	16a\	.	16a/)	.	.	.	.	.	.
8AA/	.	16cc\	.	(16cc\	.	.	.	.	.	.
.	.	16b\JJ	.	16b\JJ)	.	.	.	.	.	.
!	!	!LO:TX:t=P:problem:mixed beam	!	!LO:TX:t=P:problem:mixed beam	!	!	!	!	!	!
8BB/	.	16dd\LL	.	(16dd\LL	.	.	.	.	.	.
.	.	16cc\	.	16cc\)	.	.	.	.	.	.
8C/J	.	16ee\	.	(16ee\	.	.	.	.	.	.
.	.	16g/JJ	.	16g\JJ)	.	.	.	.	.	.
!LO:LB:g=original	!	!LO:LB:g=original	!	!	!	!	!	!	!	!
=16	=16	=16	=16	=16	=16	=16	=16	=16	=16	=16
8D\L	.	16f#X/LL	.	16f#/LL	.	2ryy	.	.	2ryy	2ryy
.	.	16a/	.	16a/	.	.	.	.	.	.
8A\	.	16b\	.	16b\	.	.	.	.	.	.
.	.	16cc\JJ	.	16cc\JJ	.	.	.	.	.	.
8F#\	.	4cc\M	.	4ccT\	.	.	.	.	.	.
8D\J	.	.	.	.	.	.	.	.	.	.
=17	=17	=17	=17	=17	=17	=17	=17	=17	=17	=17
!LO:TX:t=P:problem:mixed beam	!	!	!	!	!	!	!	!	!	!
8G\L	.	24b\LL	.	24b\LL	.	2ryy	0r	.	2ryy	2ryy
.	.	24cc\	.	24cc\	.	.	.	.	.	.
.	.	24dd\JJ	.	24dd\JJ	.	.	.	.	.	.
8C\	.	24cc\LL	.	24cc\LL	.	.	.	.	.	.
.	.	24b\	.	24b\	.	.	.	.	.	.
.	.	24a/JJ	.	24a\JJ	.	.	.	.	.	.
8D\	.	8g/L	.	8g/L	.	.	.	.	.	.
8DD/J	.	8a/J	.	8aT/J	.	.	.	.	.	.
=18	=18	=18	=18	=18	=18	=18	=18	=18	=18	=18
8GG/L	.	4g/	.	4g/	.	2ryy	.	.	2ryy	2ryy
8AA/	.	.	.	.	.	.	.	.	.	.
8BB/	.	8r	.	8r	.	.	.	.	.	.
8C/J	.	8a/	.	8a/	.	.	.	.	.	.
=19	=19	=19	=19	=19	=19	=19	=19	=19	=19	=19
!	!LO:DY:a	!	!	!	!	!	!	!	!	!
8GG/L	p	(16b\LL	.	16b\LL	p	2ryy	.	.	2ryy	2ryy
.	.	16a\	.	(16a/	.	.	.	.	.	.
8AA/	.	16cc\)	.	16cc\)	.	.	.	.	.	.
.	.	16b\JJ	.	16b\JJ	.	.	.	.	.	.
!	!	!LO:TX:t=P:problem:mixed beam	!	!	!	!	!	!	!	!
8BB/	.	(16dd\LL	.	(16dd\LL	.	.	.	.	.	.
.	.	16cc\	.	16cc\)	.	.	.	.	.	.
8C/J	.	16ee\)	.	16ee\	.	.	.	.	.	.
.	.	16g\JJ	.	16g\JJ	.	.	.	.	.	.
=20	=20	=20	=20	=20	=20	=20	=20	=20	=20	=20
8D\L	.	16f#/LL	.	16f#/LL	.	2ryy	.	.	2ryy	2ryy
.	.	16g/	.	16g/	.	.	.	.	.	.
8A\	.	16a/	.	16a/	.	.	.	.	.	.
.	.	16b\JJ	.	16b\JJ	.	.	.	.	.	.
8F#\	.	4cc\M	.	4cc\T	.	.	.	.	.	.
8D\J	.	.	.	.	.	.	.	.	.	.
!	!	!	!	!LO:LB:g=original	!	!	!	!	!	!
=21	=21	=21	=21	=21	=21	=21	=21	=21	=21	=21
!LO:TX:t=P:problem:mixed beam	!	!	!	!LO:TUP:a:problem:klamra łukowa	!	!	!	!	!	!
8G\L	.	24b\LL	.	24b\LL	.	2ryy	0r	.	2ryy	2ryy
.	.	24cc\	.	24cc\	.	.	.	.	.	.
.	.	24dd\JJ	.	24dd\JJ	.	.	.	.	.	.
!	!	!	!	!LO:TUP:a:problem:klamra łukowa	!	!	!	!	!	!
8C\	.	24cc\LL	.	24cc\LL	.	.	.	.	.	.
.	.	24b\	.	24b\	.	.	.	.	.	.
.	.	24a/JJ	.	24a/JJ	.	.	.	.	.	.
8D\	.	8g/L	.	(>8g/L	.	.	.	.	.	.
8DD/J	.	8a/J	.	8aT/J)	.	.	.	.	.	.
=22	=22	=22	=22	=22	=22	=22	=22	=22	=22	=22
!	!LO:DY:a	!	!	!LO:TX:t=P:problem:mixed beam	!	!	!	!	!	!
8GG/L	f	4g/	.	24g/LL	.	2ryy	.	.	2ryy	2ryy
.	.	.	.	24bb\	.	.	.	.	.	.
.	.	.	.	24aa\JJ	.	.	.	.	.	.
8AA/	.	.	.	24gg\LL	.	.	.	.	.	.
.	.	.	.	24ff#\	.	.	.	.	.	.
.	.	.	.	24ee\JJ	.	.	.	.	.	.
8BB/	.	8r	.	24dd\LL	.	.	.	.	.	.
.	.	.	.	24gg\	.	.	.	.	.	.
.	.	.	.	24ff#\JJ	.	.	.	.	.	.
8C/J	.	8a/	.	24ee\LL	.	.	.	.	.	.
.	.	.	.	24dd\	.	.	.	.	.	.
.	.	.	.	24cc\JJ	.	.	.	.	.	.
=23	=23	=23	=23	=23	=23	=23	=23	=23	=23	=23
!LO:TX:t=P:problem:mixed beam	!	!	!	!	!	!	!	!	!	!
8D\L	.	8b\L	.	8b\L	.	2ryy	.	.	2ryy	2ryy
8D\	.	16a/L	.	16a/L	.	.	.	.	.	.
.	.	16g/JJ	.	16g/JJ	.	.	.	.	.	.
8DD/	.	4a/M	.	4aT/	.	.	.	.	.	.
8DD/J	.	.	.	.	.	.	.	.	.	.
!	!	!LO:LB:g=original	!	!	!	!	!	!	!	!
=24	=24	=24	=24	=24	=24	=24	=24	=24	=24	=24
4GG/	.	8g/L	.	8g/L	.	2ryy	.	.	2ryy	2ryy
.	.	16d/L	.	16d/L	.	.	.	.	.	.
.	.	16B/JJ	.	16B/JJ	.	.	.	.	.	.
!	!	!LO:TX:t=P:problem:po tym jest segno	!	!	!	!	!	!	!	!
4r	.	4G/	.	4G;/	.	.	.	.	.	.
=25||	=25||	=25||	=25||	=25||	=25||	=25||	=25||	=25||	=25||	=25||
!	!LO:DY:a	!	!LO:DY:a	!	!	!	!LO:TX:t=P:problem:all\right:global	!	!	!
8G\L	p	8a/L	p	4G/ 4b/ 4gg/	.	2ryy	4gg\	Ma-	2ryy	2ryy
8B\	.	8dd/	.	.	.	.	.	.	.	.
*	*	*	*	*	*above	*	*	*	*	*
8F#\	.	8a/	.	4dd\	p	.	4ee\	-ter	.	.
8D\J	.	8f#/J	.	.	.	.	.	.	.	.
=26	=26	=26	=26	=26	=26	=26	=26	=26	=26	=26
*	*	*	*	*	*	*	*Xtuplet	*	*	*
!	!	!	!	!LO:TUP:a:problem:klamra łukowa	!	!	!	!	!	!
8G\L	.	8b\L	.	24b\LL	.	2ryy	24b\LL	Chri-	2ryy	2ryy
.	.	.	.	24a\	.	.	24a\	.	.	.
.	.	.	.	24g\J	.	.	24g\JJ	.	.	.
8A\	.	8cc\	.	8g/J	.	.	8g\	-sti	.	.
8B\	.	8dd\	.	8r	.	.	8r	.	.	.
8G\J	.	8b\J	.	8dd\	.	.	8dd\	o-	.	.
!LO:LB:g=original	!	!	!	!	!	!	!	!	!	!
=27	=27	=27	=27	=27	=27	=27	=27	=27	=27	=27
!	!	!	!	!LO:TUP:a:problem:klamra łukowa	!	!	!	!	!	!
8C/L	.	8cc\L	.	24ee\LL	.	2ryy	4ee\	-ra	2ryy	2ryy
.	.	.	.	24dd\	.	.	.	.	.	.
.	.	.	.	24cc\J	.	.	.	.	.	.
8C/	.	8ee\	.	8ccc\J	.	.	.	.	.	.
!	!	!	!	!LO:TUP:a:problem:klamra łukowa	!	!	!	!	!	!
8C/	.	8cc\	.	24ee\LL	.	.	4ee\	pro	.	.
.	.	.	.	24dd\	.	.	.	.	.	.
.	.	.	.	24cc\J	.	.	.	.	.	.
8C/J	.	8ee\J	.	8ccc\J	.	.	.	.	.	.
=28	=28	=28	=28	=28	=28	=28	=28	=28	=28	=28
8G\L	.	8b\L	.	16dd\LL	.	2ryy	16dd\LL	no-	2ryy	2ryy
.	.	.	.	16b\JJ	.	.	16b\JJ	.	.	.
.	.	.	.	8qqa/	.	.	8qqa/	.	.	.
8G\	.	8b\	.	4g/	.	.	4g\	-bis	.	.
8G\	.	8b\	.	.	.	.	.	.	.	.
8G\J	.	8b\J	.	8dd\	.	.	8ee\	o-	.	.
!	!	!	!	!LO:LB:g=original	!	!	!	!	!	!
=29	=29	=29	=29	=29	=29	=29	=29	=29	=29	=29
!	!	!	!	!LO:TUP:a:problem:klamra łukowa	!	!	!	!	!	!
8E\L	.	8a\L	.	24cc\LL	.	2ryy	4cc\	-ra	2ryy	2ryy
.	.	.	.	24b\	.	.	.	.	.	.
.	.	.	.	24a\J	.	.	.	.	.	.
8E\	.	8cc\	.	8aa\J	.	.	.	.	.	.
!	!	!	!	!LO:TUP:a:problem:klamra łukowa	!	!	!	!	!	!
8E\	.	8a\	.	24cc\LL	.	.	4cc\	pro	.	.
.	.	.	.	24b\	.	.	.	.	.	.
.	.	.	.	24a\J	.	.	.	.	.	.
8E\J	.	8cc\J	.	8aa\J	.	.	.	.	.	.
=30	=30	=30	=30	=30	=30	=30	=30	=30	=30	=30
!	!	!	!	!LO:TUP:a:problem:klamra łukowa	!	!	!	!	!	!
8G\L	.	8b/L	.	24b/LL	.	2ryy	24b\LL	no-	2ryy	2ryy
.	.	.	.	24a/	.	.	24a\	.	.	.
.	.	.	.	24g/J	.	.	24g\JJ	.	.	.
!	!	!	!LO:DY:b	!	!	!	!	!	!	!
8G\J	.	8b/J	f	8g/J	.	.	4.g\	-bis	.	.
!	!LO:DY:b	!	!	!	!	!	!	!	!	!
16G\LL	f	16g/LL	.	16g/LL	f	.	.	.	.	.
16D\	.	16d/	.	16d/	.	.	.	.	.	.
16BB/	.	16B/	.	16B/	.	.	.	.	.	.
16GG/JJ	.	16G/JJ	.	16G/JJ	.	.	.	.	.	.
=31	=31	=31	=31	=31	=31	=31	=31	=31	=31	=31
!	!LO:DY:a	!	!LO:DY:a	!	!	!	!	!	!	!
8G\L	p	8b\L	p	8dd\L	p	2ryy	4b\	ma-	2ryy	2ryy
8G\	.	8b\	.	8dd\	.	.	.	.	.	.
8G\	.	8b\	.	8dd\	.	.	16b\LL	-ter	.	.
.	.	.	.	.	.	.	16cc#X\JJ	.	.	.
8G\J	.	8b\J	.	8dd\J	.	.	16cc#\LL	di-	.	.
.	.	.	.	.	.	.	16dd\JJ	.	.	.
=32	=32	=32	=32	=32	=32	=32	=32	=32	=32	=32
!LO:TX:t=P:problem:mixed beam	!	!	!	!	!	!	!	!	!	!
8F#\L	.	8a/L	.	8dd\L	.	2ryy	24a\LL	-vi-	2ryy	2ryy
.	.	.	.	.	.	.	24b\	.	.	.
.	.	.	.	.	.	.	24cc\JJ	.	.	.
8F#\	.	8a/	.	8dd\	.	.	24dd\LL	-nae	.	.
.	.	.	.	.	.	.	24ee\	.	.	.
.	.	.	.	.	.	.	24ff#\JJ	.	.	.
.	.	.	.	.	.	.	8qqa/	.	.	.
8E\	.	8g/	.	8cc#X\	.	.	8.g\	gra-	.	.
8AA/J	.	8g/J	.	8ee\J	.	.	.	.	.	.
.	.	.	.	.	.	.	16g\	-ti-	.	.
!	!	!	!	!	!	!	!LO:LB:g=original	!	!	!
=33	=33	=33	=33	=33	=33	=33	=33	=33	=33	=33
4D\	.	8f#/	.	8dd\	.	2ryy	8f#/	-a	2ryy	2ryy
.	.	4a/	.	4ff#\	.	.	8ff#\	o-	.	.
8r	.	.	.	.	.	.	16ff#\LL	-ra	.	.
.	.	.	.	.	.	.	16ee\JJ	.	.	.
8D\	.	8g/	.	8ee\	.	.	16gg\LL	pro	.	.
.	.	.	.	.	.	.	16ee\JJ	.	.	.
!	!	!LO:LB:g=original	!	!	!	!	!	!	!	!
=34	=34	=34	=34	=34	=34	=34	=34	=34	=34	=34
!LO:TX:t=P:problem:mixed beam	!	!LO:TX:t=P:problem:mixed beam	!	!	!	!	!	!	!	!
8A\L	.	8f#/L	.	8dd\L	.	2ryy	8dd\	no-	2ryy	2ryy
8AA/	.	8d/	.	8cc#X\	.	.	8cc#X\	-bis	.	.
8AA/	.	8cc#X\	.	8ee\	.	.	16cc#\LL	Ma-	.	.
.	.	.	.	.	.	.	16ee\	.	.	.
8AA/J	.	8cc#\J	.	8ee\J	.	.	16dd\	.	.	.
.	.	.	.	.	.	.	16ff#\JJ	.	.	.
=35	=35	=35	=35	=35	=35	=35	=35	=35	=35	=35
!	!	!LO:SIC:o:s=:v:8c#	!	!	!	!	!	!	!	!
8AA/L	.	8cc\L	.	8ee\L	.	2ryy	16ee\LL	-ter	2ryy	2ryy
.	.	.	.	.	.	.	16dd\JJ	.	.	.
!	!	!LO:SIC:o:s=:v:8c#	!	!	!	!	!	!	!	!
8AA/	.	8cc\	.	8ee\	.	.	16cc#X\LL	pu-	.	.
.	.	.	.	.	.	.	16b\JJ	.	.	.
!	!	!LO:SIC:o:s=:v:8c#	!	!	!	!	!	!	!	!
8AA/	.	8cc\	.	8ee\	.	.	16a\LL	-ris-	.	.
.	.	.	.	.	.	.	16cc#\JJ	-si-	.	.
!	!	!LO:SIC:o:s=:v:8c#	!	!	!	!	!	!	!	!
8AA/J	.	8cc\J	.	8ee\J	.	.	16ee\LL	.	.	.
.	.	.	.	.	.	.	16gg\JJ	.	.	.
=36	=36	=36	=36	=36	=36	=36	=36	=36	=36	=36
8D\L	.	8dd\L	.	8ff#\L	.	2ryy	4ff#\	-ma	2ryy	2ryy
8D\	.	8dd\	.	8ff#\	.	.	.	.	.	.
8F#\	.	8a\	.	8dd\	.	.	16dd\LL	o-	.	.
.	.	.	.	.	.	.	16a\J	.	.	.
8F#\J	.	8a\J	.	8dd\J	.	.	8a\MJ	.	.	.
=37	=37	=37	=37	=37	=37	=37	=37	=37	=37	=37
.	.	.	.	.	.	.	8qqcc/	.	.	.
8G\L	.	8b\L	.	8dd\L	.	2ryy	4b\	-ra	2ryy	2ryy
8G\	.	8b\	.	8dd\	.	.	.	.	.	.
8G\	.	8b\	.	8ee\	.	.	16ee\LL	o-	.	.
.	.	.	.	.	.	.	16b\J	.	.	.
8G\J	.	8b\J	.	8ee\J	.	.	8b\mJ	.	.	.
!LO:LB:g=original	!	!	!	!	!	!	!	!	!	!
=38	=38	=38	=38	=38	=38	=38	=38	=38	=38	=38
.	.	.	.	.	.	.	8qqdd/	.	.	.
8A\L	.	8cc#X\L	.	8ee\L	.	2ryy	4cc#X\	-ra	2ryy	2ryy
8A\	.	8cc#\	.	8ee\	.	.	.	.	.	.
8A\	.	8cc#\	.	8ff#\	.	.	16ff#\LL	o-	.	.
.	.	.	.	.	.	.	16cc#\J	.	.	.
8A\J	.	8cc#\J	.	8ff#\J	.	.	8cc#\mJ	.	.	.
=39	=39	=39	=39	=39	=39	=39	=39	=39	=39	=39
.	.	.	.	.	.	.	8qqee/	.	.	.
8B\L	.	8dd\L	.	8ff#\L	.	2ryy	4dd\	-ra	2ryy	2ryy
8B\	.	8dd\	.	8ff#\	.	.	.	.	.	.
8B\	.	8dd\	.	8gg\	.	.	16gg\LL	o-	.	.
.	.	.	.	.	.	.	16dd\J	.	.	.
8B\J	.	8dd\J	.	8gg\J	.	.	8dd\MJ	.	.	.
=40	=40	=40	=40	=40	=40	=40	=40	=40	=40	=40
.	.	.	.	.	.	.	8qqff#/	.	.	.
8c#X\L	.	8ee\L	.	8gg\L	.	2ryy	4ee\	-ra	2ryy	2ryy
8c#\	.	8ee\	.	8gg\	.	.	.	.	.	.
8c#\	.	8ee\	.	8aa\	.	.	16aa\LL	o-	.	.
.	.	.	.	.	.	.	16ee\J	.	.	.
8c#\J	.	8ee\J	.	8aa\J	.	.	8ee\MJ	.	.	.
!	!	!	!	!LO:LB:g=original	!	!	!LO:LB:g=original	!	!	!
=41	=41	=41	=41	=41	=41	=41	=41	=41	=41	=41
!LO:TX:t=P:problem:mixed beam	!	!	!	!	!	!	!	!	!	!
.	.	8qqb/	.	8qqgg/	.	.	.	.	.	.
8d\L	.	8a/L	.	8ff#\L	.	2ryy	8ff#\	-ra	2ryy	2ryy
8G\	.	8g/J	.	8ee\J	.	.	16ee\LL	pro	.	.
.	.	.	.	.	.	.	16dd\JJ	.	.	.
.	.	.	.	8qqdd/	.	.	8qqdd/	.	.	.
8A\	.	4e/M	.	4cc#Xt\	.	.	4cc#X\m	no-	.	.
8AA/J	.	.	.	.	.	.	.	.	.	.
=42	=42	=42	=42	=42	=42	=42	=42	=42	=42	=42
8D\L	.	4f#/	.	4dd\	.	2ryy	8dd\	-bis	2ryy	2ryy
8G\	.	.	.	.	.	.	16b\LL	o-	.	.
.	.	.	.	.	.	.	16g\JJ	.	.	.
8F#\	.	4r	.	4r	.	.	16a\LL	-ra	.	.
.	.	.	.	.	.	.	16gg\JJ	.	.	.
8G\J	.	.	.	.	.	.	16ff#\LL	pro	.	.
.	.	.	.	.	.	.	16ee\JJ	.	.	.
=43	=43	=43	=43	=43	=43	=43	=43	=43	=43	=43
!LO:TX:t=P:problem:mixed beam	!	!	!	!LO:TX:a:t=1	!	!	!	!	!	!
8A\L	.	2r	.	2r	.	2ryy	4dd\	no-	2ryy	2ryy
8A\	.	.	.	.	.	.	.	.	.	.
8AA/	.	.	.	.	.	.	4ee\	.	.	.
8AA/J	.	.	.	.	.	.	.	.	.	.
=44	=44	=44	=44	=44	=44	=44	=44	=44	=44	=44
!	!LO:DY:a	!	!LO:DY:b	!	!	!	!	!	!	!
8D\L	f	4ddd\	f	4ddd\	.	2ryy	4dd\	-bis	2ryy	2ryy
8F#\J	.	.	.	.	.	.	.	.	.	.
8C#X/L	.	4aa\	.	4aa\	.	.	4r	.	.	.
8AA/J	.	.	.	.	.	.	.	.	.	.
=45	=45	=45	=45	=45	=45	=45	=45	=45	=45	=45
!	!	!	!	!LO:TUP:a:problem:klamra łukowa	!	!	!	!	!	!
!	!	!	!	!	!	!	!LO:N:vis=00	!	!	!
8E\L	.	24ff#\LL	.	24ff#\LL	.	2ryy	0r	.	2ryy	2ryy
.	.	24ee\	.	24ee\	.	.	.	.	.	.
.	.	24dd\J	.	24dd\J	.	.	.	.	.	.
8E\	.	8dd\J	.	8dd\J	.	.	.	.	.	.
8F#\	.	8r	.	8r	.	.	.	.	.	.
8F#\J	.	8aa\	.	8aa\	.	.	.	.	.	.
!	!	!LO:LB:g=original	!	!	!	!	!	!	!	!
=46	=46	=46	=46	=46	=46	=46	=46	=46	=46	=46
8G\L	.	32bb\LLL	.	32bb\LLL	.	2ryy	.	.	2ryy	2ryy
.	.	32ccc\JJ	.	32ccc#X\JJ	.	.	.	.	.	.
.	.	8.ddd\J	.	8.ddd\J	.	.	.	.	.	.
8G\	.	.	.	.	.	.	.	.	.	.
8G\	.	24bb\LL	.	24bb\LL	.	.	.	.	.	.
.	.	24aa\	.	24aa\	.	.	.	.	.	.
.	.	24gg\JJ	.	24gg\JJ	.	.	.	.	.	.
8G\J	.	24ff#\LL	.	24ff#\LL	.	.	.	.	.	.
.	.	24ee\	.	24ee\	.	.	.	.	.	.
.	.	24dd\JJ	.	24dd\JJ	.	.	.	.	.	.
=47	=47	=47	=47	=47	=47	=47	=47	=47	=47	=47
*	*	*tuplet	*	*	*	*	*	*	*	*
!	!	!LO:TUP:a:problem:klamra łukowa	!	!LO:TUP:a:problem:klamra łukowa	!	!	!	!	!	!
8A\L	.	24cc#X\LL	.	24cc#X\LL	.	2ryy	.	.	2ryy	2ryy
.	.	24b\	.	24b\	.	.	.	.	.	.
.	.	24a\J	.	24a\J	.	.	.	.	.	.
8B\	.	8a\J	.	8a\J	.	.	.	.	.	.
8c#X\	.	8r	.	8r	.	.	.	.	.	.
8A\J	.	8ee\	.	8ee\	.	.	.	.	.	.
=48	=48	=48	=48	=48	=48	=48	=48	=48	=48	=48
8D\L	.	(16ff#\LL	.	(16ff#\LL	.	2ryy	.	.	2ryy	2ryy
.	.	16ee\	.	16ee\)	.	.	.	.	.	.
8E\	.	16gg\	.	(16gg\	.	.	.	.	.	.
.	.	16ff#\JJ)	.	16ff#\JJ)	.	.	.	.	.	.
8F#\	.	(16aa\LL	.	(16aa\LL	.	.	.	.	.	.
.	.	16gg\	.	16gg\	.	.	.	.	.	.
8G\J	.	16bb\	.	16bb\	.	.	.	.	.	.
.	.	16dd\JJ)	.	16dd\JJ)	.	.	.	.	.	.
=49	=49	=49	=49	=49	=49	=49	=49	=49	=49	=49
!	!	!	!	!	!	!	!LO:N:vis=00	!	!	!
8A\L	.	16cc#X\LL	.	16cc#X\LL	.	2ryy	0r	.	2ryy	2ryy
.	.	16dd\	.	16dd\	.	.	.	.	.	.
8E\J	.	16ee\	.	16ee\	.	.	.	.	.	.
.	.	16ff#\JJ	.	16ff#\JJ	.	.	.	.	.	.
8C#X/L	.	4gg\	.	4ggT\	.	.	.	.	.	.
8AA/J	.	.	.	.	.	.	.	.	.	.
!LO:LB:g=original	!	!	!	!	!	!	!	!	!	!
=50	=50	=50	=50	=50	=50	=50	=50	=50	=50	=50
*	*	*Xtuplet	*	*	*	*	*	*	*	*
!LO:TX:t=P:problem:mixed beam	!	!	!	!	!	!	!	!	!	!
8D\L	.	24ff#\LL	.	24ff#\LL	.	2ryy	.	.	2ryy	2ryy
.	.	24gg\	.	24gg\	.	.	.	.	.	.
.	.	24aa\JJ	.	24aa\JJ	.	.	.	.	.	.
8G\	.	24gg\LL	.	24gg\LL	.	.	.	.	.	.
.	.	24ff#\	.	24ff#\	.	.	.	.	.	.
.	.	24ee\JJ	.	24ee\JJ	.	.	.	.	.	.
!	!	!	!	!LO:LB:g=original	!	!	!	!	!	!
8A\	.	8dd\L	.	8dd\L	.	.	.	.	.	.
8AA/J	.	8ee\MJ	.	8ee\J	.	.	.	.	.	.
=51	=51	=51	=51	=51	=51	=51	=51	=51	=51	=51
8D\L	.	4dd\	.	4dd\	.	2ryy	.	.	2ryy	2ryy
16D\L	.	.	.	.	.	.	.	.	.	.
16E\JJ	.	.	.	.	.	.	.	.	.	.
8F#\L	.	8r	.	8r	.	.	.	.	.	.
!	!	!	!LO:DY:b	!	!	!	!	!	!	!
8C#X\J	.	8ee\	p	8ee\	p	.	.	.	.	.
=52	=52	=52	=52	=52	=52	=52	=52	=52	=52	=52
!	!LO:DY:a	!	!	!	!	!	!	!	!	!
8D\L	p	16ff#\LL	.	16ff#\LL	.	2ryy	.	.	2ryy	2ryy
.	.	16ee\	.	16ee\	.	.	.	.	.	.
8E\	.	16gg\	.	16gg\	.	.	.	.	.	.
.	.	16ff#\JJ	.	16ff#\JJ	.	.	.	.	.	.
8F#\	.	16aa\LL	.	16aa\LL	.	.	.	.	.	.
.	.	16gg\	.	16gg\	.	.	.	.	.	.
8G\J	.	16bb\	.	16bb\	.	.	.	.	.	.
.	.	16dd\JJ	.	16dd\JJ	.	.	.	.	.	.
!	!	!LO:LB:g=original	!	!	!	!	!	!	!	!
=53	=53	=53	=53	=53	=53	=53	=53	=53	=53	=53
!	!	!	!	!	!	!	!LO:N:vis=00	!	!	!
8A\L	.	16cc#X\LL	.	16cc#X\LL	.	2ryy	0r	.	2ryy	2ryy
.	.	16dd\	.	16dd\	.	.	.	.	.	.
8E\J	.	16ee\	.	16ee\	.	.	.	.	.	.
.	.	16ff#\JJ	.	16ff#\JJ	.	.	.	.	.	.
8C#X/L	.	4gg\	.	4gg\	.	.	.	.	.	.
8AA/J	.	.	.	.	.	.	.	.	.	.
=54	=54	=54	=54	=54	=54	=54	=54	=54	=54	=54
!LO:TX:t=P:problem:mixed beam	!	!	!	!	!	!	!	!	!	!
8E\L	.	24ff#\LL	.	24ff#\LL	.	2ryy	.	.	2ryy	2ryy
.	.	24gg\	.	24gg\	.	.	.	.	.	.
.	.	24aa\JJ	.	24aa\JJ	.	.	.	.	.	.
8G\	.	24gg\LL	.	24gg\LL	.	.	.	.	.	.
.	.	24ff#\	.	24ff#\	.	.	.	.	.	.
.	.	24ee\JJ	.	24ee\JJ	.	.	.	.	.	.
8A\	.	8dd\L	.	8dd\L	.	.	.	.	.	.
8AA/J	.	8ee\MJ	.	8ee\TJ	.	.	.	.	.	.
=55	=55	=55	=55	=55	=55	=55	=55	=55	=55	=55
*	*	*	*	*	*below	*	*	*	*	*
!	!LO:DY:a	!	!	!	!	!	!	!	!	!
8D\L	f	24dd\LL	f	24dd\LL	f	2ryy	.	.	2ryy	2ryy
.	.	24ff#\	.	24ff#\	.	.	.	.	.	.
.	.	24ee\JJ	.	24ee\JJ	.	.	.	.	.	.
8E\	.	24dd\LL	.	24dd\LL	.	.	.	.	.	.
.	.	24cc#X\	.	24cc#X\	.	.	.	.	.	.
.	.	24b\JJ	.	24b\JJ	.	.	.	.	.	.
8F#\	.	24a/LL	.	24a/LL	.	.	.	.	.	.
.	.	24dd/	.	24dd/	.	.	.	.	.	.
.	.	24cc#/JJ	.	24cc#/JJ	.	.	.	.	.	.
8G\J	.	24b/LL	.	24b/LL	.	.	.	.	.	.
.	.	24a/	.	24a/	.	.	.	.	.	.
.	.	24g/JJ	.	24g/JJ	.	.	.	.	.	.
=56	=56	=56	=56	=56	=56	=56	=56	=56	=56	=56
!LO:TX:t=P:problem:mixed beam	!	!	!	!	!	!	!	!	!	!
8A\L	.	24f#/LL	.	24f#/LL	.	2ryy	.	.	2ryy	2ryy
.	.	24e/	.	24e/	.	.	.	.	.	.
.	.	24d/JJ	.	24d/JJ	.	.	.	.	.	.
8A\	.	4.e/M	.	4.e/T	.	.	.	.	.	.
8AA/	.	.	.	.	.	.	.	.	.	.
8AA/J	.	.	.	.	.	.	.	.	.	.
=57	=57	=57	=57	=57	=57	=57	=57	=57	=57	=57
!	!	!LO:TX:t=P:problem:mixed beam	!	!LO:TX:t=P:problem:mixed beam	!	!	!	!	!	!
4D\	.	16d/LL	.	16d/LL	.	2ryy	2r	.	2ryy	2ryy
.	.	(16dd\	.	16dd\	.	.	.	.	.	.
.	.	16cc#X\	.	16cc#X\	.	.	.	.	.	.
.	.	16dd\JJ)	.	16dd\JJ	.	.	.	.	.	.
4r	.	4d/	.	4d/	.	.	.	.	.	.
=58	=58	=58	=58	=58	=58	=58	=58	=58	=58	=58
!	!LO:DY:a	!	!LO:DY:a	!	!LO:DY:a	!	!	!	!	!
8D\L	p	8f#/L	p	4dd\	p	2ryy	4dd\	Mater	2ryy	2ryy
8F#\J	.	8a/	.	.	.	.	.	.	.	.
8C#X/L	.	8e/	.	4a\	.	.	8a\	Ca-	.	.
8AA/J	.	8c/J	.	.	.	.	8a\	.	.	.
=59	=59	=59	=59	=59	=59	=59	=59	=59	=59	=59
!	!	!	!	!LO:TUP:a:problem:klamra łukowa	!	!	!	!	!	!
8D\L	.	8f#/L	.	24f#/LL	.	2ryy	16f#/LL	-sti-	2ryy	2ryy
.	.	.	.	24e/	.	.	.	.	.	.
.	.	.	.	.	.	.	16e/JJ	-ssi-	.	.
.	.	.	.	24d/J	.	.	.	.	.	.
8E\	.	8g/	.	8d/J	.	.	16d/	-ma	.	.
.	.	.	.	.	.	.	16d/	.	.	.
8F#\	.	8a/	.	8r	.	.	8r	.	.	.
!	!	!	!	!LO:LB:g=original	!	!	!	!	!	!
8D\J	.	8f#/J	.	8a/	.	.	8a\	o-	.	.
=60	=60	=60	=60	=60	=60	=60	=60	=60	=60	=60
!	!	!	!	!LO:TUP:a:problem:klamra łukowa	!	!	!	!	!	!
8GG/L	.	8g/L	.	24b\LL	.	2ryy	4b\	-ra	2ryy	2ryy
.	.	.	.	24a\	.	.	.	.	.	.
.	.	.	.	24g\J	.	.	.	.	.	.
8GG/	.	8b\	.	8gg\J	.	.	.	.	.	.
!	!	!	!	!LO:TUP:a:problem:klamra łukowa	!	!	!	!	!	!
8GG/	.	8g/	.	24b\LL	.	.	4b\	pro	.	.
.	.	.	.	24a\	.	.	.	.	.	.
.	.	.	.	24g\J	.	.	.	.	.	.
8GG/J	.	8b\J	.	8gg\J	.	.	.	.	.	.
!LO:LB:g=original	!	!LO:LB:g=original	!	!	!	!	!	!	!	!
=61	=61	=61	=61	=61	=61	=61	=61	=61	=61	=61
8D\L	.	8f#/L	.	16a/LL	.	2ryy	16a\LL	no-	2ryy	2ryy
.	.	.	.	16f#/JJ	.	.	16f#/JJ	.	.	.
.	.	.	.	.	.	.	8qqe/	.	.	.
8D\	.	8f#/	.	4d/	.	.	8d/	-bis	.	.
8D\	.	8f#/	.	.	.	.	8r	.	.	.
8D\J	.	8f#/J	.	8a/	.	.	8a\	o-	.	.
!	!	!	!	!	!	!	!LO:LB:g=original	!	!	!
=62	=62	=62	=62	=62	=62	=62	=62	=62	=62	=62
!	!	!	!	!LO:TUP:a:problem:klamra łukowa	!	!	!	!	!	!
8AA/L	.	8e/L	.	24g/LL	.	2ryy	4g/	-ra	2ryy	2ryy
.	.	.	.	24f#/	.	.	.	.	.	.
.	.	.	.	24e/JJ	.	.	.	.	.	.
8AA/	.	8g/	.	8ee\|	.	.	.	.	.	.
!	!	!	!	!LO:TUP:a:problem:klamra łukowa	!	!	!	!	!	!
8AA/	.	8e/	.	24g/LL	.	.	4g/	pro	.	.
.	.	.	.	24f#/	.	.	.	.	.	.
.	.	.	.	24e/JJ	.	.	.	.	.	.
8AA/J	.	8g/J	.	8ee\|	.	.	.	.	.	.
=63	=63	=63	=63	=63	=63	=63	=63	=63	=63	=63
!	!	!	!	!LO:TUP:a:problem:klamra łukowa	!LO:DY:b	!	!	!	!	!
8D\L	.	8f#/L	.	24f#/LL	f	2ryy	16f#/LL	no-	2ryy	2ryy
.	.	.	.	24e/	.	.	.	.	.	.
.	.	.	.	.	.	.	16e/JJ	.	.	.
.	.	.	.	24d/J	.	.	.	.	.	.
8D\	.	8f#/J	.	8d/J|	.	.	8d/	-bis	.	.
!	!	!	!	!LO:TUP:a:problem:klamra łukowa	!	!	!	!	!	!
8F#\	.	24a/LL	.	24ff#\LL	.	.	4r	.	.	.
.	.	24g/	.	24ee\	.	.	.	.	.	.
.	.	24f#/JJ	.	24dd\JJ	.	.	.	.	.	.
!	!	!	!	!LO:TUP:a:problem:klamra łukowa	!	!	!	!	!	!
8A\J	.	24a/LL	.	24ee\LL	.	.	.	.	.	.
.	.	24g/	.	24dd\	.	.	.	.	.	.
.	.	24f#/JJ	.	24cc#\JJ	.	.	.	.	.	.
=64	=64	=64	=64	=64	=64	=64	=64	=64	=64	=64
!	!	!	!	!	!LO:DY:a	!	!	!	!	!
8D\L	.	8f#/L	.	8dd\L	p	2ryy	4dd\	Ma-	2ryy	2ryy
8F#\	.	8a/	.	8dd\	.	.	.	.	.	.
8F#\	.	8a/	.	8dd\	.	.	24ff#\LL	.	.	.
.	.	.	.	.	.	.	24ee\	.	.	.
.	.	.	.	.	.	.	24dd\JJ	.	.	.
8F#\J	.	8a/J	.	8dd\J	.	.	24ccn\LL	.	.	.
.	.	.	.	.	.	.	24b\	.	.	.
.	.	.	.	.	.	.	24a\JJ	.	.	.
=65	=65	=65	=65	=65	=65	=65	=65	=65	=65	=65
.	.	.	.	.	.	.	8qqa/	.	.	.
8G\L	.	8b\L	.	8dd\L	.	2ryy	4b\	-ter	2ryy	2ryy
8G\	.	8b\	.	8dd\	.	.	.	.	.	.
8G\	.	8b\	.	8dd\	.	.	8r	.	.	.
8G\J	.	8b\J	.	8dd\J	.	.	8b\	in-	.	.
=66	=66	=66	=66	=66	=66	=66	=66	=66	=66	=66
8G\L	.	8b\L	.	8ee\L	.	2ryy	8ee\	-vio-	2ryy	2ryy
8G\	.	8b\	.	8ee\	.	.	8ee\	-la-	.	.
8G\	.	8b\	.	8ee\	.	.	24gg\LL	.	.	.
.	.	.	.	.	.	.	24ff#\	.	.	.
.	.	.	.	.	.	.	24ee\JJ	.	.	.
8G\J	.	8b\J	.	8ee\J	.	.	24dd\LL	.	.	.
.	.	.	.	.	.	.	24cc#X\	.	.	.
.	.	.	.	.	.	.	24b\JJ	.	.	.
=67	=67	=67	=67	=67	=67	=67	=67	=67	=67	=67
8A\L	.	8cc#X\L	.	8ee\L	.	2ryy	4cc#X\	-ta	2ryy	2ryy
8A\	.	8cc#\	.	8ee\	.	.	.	.	.	.
8A\	.	8cc#\	.	8ee\	.	.	16a\LL	o-	.	.
.	.	.	.	.	.	.	16b\	.	.	.
8A\J	.	8cc#\J	.	8ee\J	.	.	16cc#\	.	.	.
.	.	.	.	.	.	.	16dd\JJ	.	.	.
=68	=68	=68	=68	=68	=68	=68	=68	=68	=68	=68
!	!	!LO:SIC:s=:v:8cc#	!	!	!	!	!	!	!	!
8A\L	.	8cc\L	.	8ee\L	.	2ryy	16ee\LL	.	2ryy	2ryy
!	!	!	!	!	!	!	!LO:SIC:s=:v:16cc#	!	!	!
.	.	.	.	.	.	.	16cc\JJ	.	.	.
!	!	!LO:SIC:s=:v:8cc#	!	!	!	!	!	!	!	!
8A\	.	8cc\	.	8ee\	.	.	8a\	-ra	.	.
!	!	!LO:SIC:s=:v:8cc#	!	!	!	!	!	!	!	!
8A\	.	8cc\	.	8ee\	.	.	16a\LL	o-	.	.
.	.	.	.	.	.	.	16cc#X\	.	.	.
!	!	!LO:SIC:s=:v:8cc#	!	!	!	!	!	!	!	!
8A\J	.	8cc\J	.	8ee\J	.	.	16dd\	.	.	.
.	.	.	.	.	.	.	16ee\JJ	.	.	.
!	!	!	!	!LO:LB:g=original	!	!	!	!	!	!
=69	=69	=69	=69	=69	=69	=69	=69	=69	=69	=69
8A\L	.	8dd\L	.	8ff#\L	.	2ryy	16ff#\LL	-ra	2ryy	2ryy
.	.	.	.	.	.	.	16dd\JJ	.	.	.
8A\	.	8dd\	.	8ff#\	.	.	8b\	.	.	.
8A\	.	8dd\	.	8ff#\	.	.	16a\LL	o-	.	.
.	.	.	.	.	.	.	16dd\	.	.	.
8A\J	.	8dd\J	.	8ff#\J	.	.	16ee\	.	.	.
.	.	.	.	.	.	.	16ff#\JJ	.	.	.
!	!	!	!	!	!	!	!LO:PB:g=original	!	!	!
=70	=70	=70	=70	=70	=70	=70	=70	=70	=70	=70
8A\L	.	8ee\L	.	8gg\L	.	2ryy	16gg\LL	-o-	2ryy	2ryy
.	.	.	.	.	.	.	16ff#\	.	.	.
8A\	.	8ee\	.	8gg\	.	.	16ee\	.	.	.
.	.	.	.	.	.	.	16dd\JJ	.	.	.
8A\	.	8ee\	.	8gg\	.	.	16cc#X\LL	.	.	.
.	.	.	.	.	.	.	16b\	.	.	.
8A\J	.	8ee\J	.	8gg\J	.	.	16a\	.	.	.
.	.	.	.	.	.	.	16g\JJ	.	.	.
*	*	*	*	*Xtremolo	*	*	*	*	*	*
=71	=71	=71	=71	=71	=71	=71	=71	=71	=71	=71
8D\L	.	8dd\L	.	16ff#\LL	.	2ryy	8f#\L	-ra	2ryy	2ryy
.	.	.	.	16dd\	.	.	.	.	.	.
8G\	.	8dd\	.	16ddd\	.	.	16dd\L	.	.	.
.	.	.	.	16bb\JJ	.	.	16b\JJ	.	.	.
8F#\	.	8dd\	.	16aa\LL	.	.	8a\	pro	.	.
.	.	.	.	16ff#\	.	.	.	.	.	.
8G\J	.	8ee\J	.	16gg\	.	.	16gg\LL	.	.	.
.	.	.	.	16ee\JJ	.	.	16ee\JJ	.	.	.
!	!	!LO:LB:g=original	!	!	!	!	!	!	!	!
=72	=72	=72	=72	=72	=72	=72	=72	=72	=72	=72
!LO:TX:t=P:problem:mixed beam	!	!	!	!	!	!	!	!	!	!
8A\L	.	4dd\	.	4dd\	.	2ryy	4dd\	no-	2ryy	2ryy
8G\	.	.	.	.	.	.	.	.	.	.
8A\	.	4cc#X\m	.	4eeT\	.	.	4ee\M	.	.	.
8AA/J	.	.	.	.	.	.	.	.	.	.
!LO:LB:g=original	!	!	!	!	!	!	!	!	!	!
=73	=73	=73	=73	=73	=73	=73	=73	=73	=73	=73
8D\L	.	4dd\	.	4dd\	.	2ryy	4dd\	-bis	2ryy	2ryy
16d\L	.	.	.	.	.	.	.	.	.	.
16c#X\JJ	.	.	.	.	.	.	.	.	.	.
8B\L	.	4r	.	4r	.	.	4r	.	.	.
8A\J	.	.	.	.	.	.	.	.	.	.
=74	=74	=74	=74	=74	=74	=74	=74	=74	=74	=74
8G\L	.	8b\L	.	4G/ 4b/ 4gg/	.	2ryy	4gg\	Ma-	2ryy	2ryy
8B\	.	8dd\	.	.	.	.	.	.	.	.
8F#\	.	8a\	.	4dd\	.	.	4dd\	-ter	.	.
8D\J	.	8f#\J	.	.	.	.	.	.	.	.
=75	=75	=75	=75	=75	=75	=75	=75	=75	=75	=75
*	*	*	*	*tuplet	*	*	*	*	*	*
!	!	!	!	!LO:TUP:a:problem:klamra łukowa	!	!	!	!	!	!
8G\L	.	8b\L	.	24b\LL	.	2ryy	24b\LL	.	2ryy	2ryy
.	.	.	.	24a\	.	.	24a\	.	.	.
.	.	.	.	24g\J	.	.	24g\JJ	.	.	.
8A\	.	8ccn\	.	8g\J	.	.	8g\	.	.	.
8B\	.	8dd\	.	8r	.	.	8r	.	.	.
8B\J	.	8g\J	.	8dd\	.	.	8dd\	in-	.	.
=76	=76	=76	=76	=76	=76	=76	=76	=76	=76	=76
!LO:TX:t=P:problem:mixed beam	!	!	!	!	!	!	!	!	!	!
8c\L	.	8g/L	.	(32ee\LLL	.	2ryy	8ee\	-te-	2ryy	2ryy
.	.	.	.	32ff#\JJ)	.	.	.	.	.	.
.	.	.	.	8.gg\J	.	.	.	.	.	.
8C/	.	8g/	.	.	.	.	8ee\	-me-	.	.
*	*	*	*	*Xtuplet	*	*	*	*	*	*
!	!	!	!	!LO:TUP:a:problem:klamra łukowa	!	!	!	!	!	!
8C/	.	8g/	.	24ee\LL	.	.	16ee\LL	-ra-	.	.
.	.	.	.	24dd\	.	.	.	.	.	.
.	.	.	.	.	.	.	16cc\JJ	.	.	.
.	.	.	.	24cc\JJ	.	.	.	.	.	.
!	!	!	!	!LO:TUP:a:problem:klamra łukowa	!	!	!	!	!	!
8C/J	.	8g/J	.	24b\LL	.	.	16cc\LL	.	.	.
.	.	.	.	24a\	.	.	.	.	.	.
.	.	.	.	.	.	.	16g\JJ	.	.	.
.	.	.	.	24g\JJ	.	.	.	.	.	.
=77	=77	=77	=77	=77	=77	=77	=77	=77	=77	=77
!	!	!	!	!LO:TUP:a:problem:klamra łukowa	!	!	!	!	!	!
8D\L	.	8f#/L	.	24f#/LL	.	2ryy	16g\LL	-ta	2ryy	2ryy
.	.	.	.	24e/	.	.	.	.	.	.
.	.	.	.	.	.	.	16f#/J	.	.	.
.	.	.	.	24d/J	.	.	.	.	.	.
8E\	.	8g/	.	8d/J	.	.	8e/J	.	.	.
8F#\	.	8a/	.	8r	.	.	8r	.	.	.
8D\J	.	8f#/J	.	8a/	.	.	8a\	o-	.	.
=78	=78	=78	=78	=78	=78	=78	=78	=78	=78	=78
8GG/L	.	8g/L	.	16b\LL	.	2ryy	8b\L	-ra	2ryy	2ryy
.	.	.	.	(16a/	.	.	.	.	.	.
8AA/	.	8f#/	.	16cc\)	.	.	8cc\J	.	.	.
.	.	.	.	16b\JJ	.	.	.	.	.	.
!	!	!	!	!LO:TX:t=P:problem:mixed beam	!	!	!	!	!	!
8BB/	.	8g/	.	(16dd\LL	.	.	8dd\	pro	.	.
.	.	.	.	16cc\)	.	.	.	.	.	.
8C/J	.	8g/J	.	(16ee\	.	.	8ee\	.	.	.
.	.	.	.	16g\JJ)	.	.	.	.	.	.
!	!	!	!	!LO:PB:g=original	!	!	!LO:LB:g=original	!	!	!
=79	=79	=79	=79	=79	=79	=79	=79	=79	=79	=79
8D\L	.	16d/LL	.	16f#/LL	.	2ryy	16f#/LL	no-	2ryy	2ryy
.	.	16e/	.	16g/	.	.	16g\	.	.	.
8A\	.	16f#/	.	16a/	.	.	16a\	.	.	.
.	.	16g/JJ	.	16b\JJ	.	.	16b\JJ	.	.	.
8F#\	.	4a/	.	4cc\T	.	.	4cc\	.	.	.
8D\J	.	.	.	.	.	.	.	.	.	.
=80	=80	=80	=80	=80	=80	=80	=80	=80	=80	=80
!LO:TX:t=P:problem:mixed beam	!	!	!	!	!	!	!	!	!	!
8G\L	.	8g/L	.	24b\LL	.	2ryy	16b\LL	.	2ryy	2ryy
.	.	.	.	24cc\	.	.	.	.	.	.
.	.	.	.	.	.	.	16dd\	.	.	.
.	.	.	.	24dd\JJ	.	.	.	.	.	.
8C\	.	8a/	.	24cc\LL	.	.	16cc\	.	.	.
.	.	.	.	24b\	.	.	.	.	.	.
.	.	.	.	.	.	.	16b\JJ	.	.	.
.	.	.	.	24a/JJ	.	.	.	.	.	.
8D\	.	8g/	.	8g/L	.	.	8g/L	.	.	.
8DD/J	.	8f#/J	.	8a/TJ	.	.	8a/MJ	.	.	.
=81	=81	=81	=81	=81	=81	=81	=81	=81	=81	=81
8GG/L	.	4g/	.	4g/	.	2ryy	4g\	-bis	2ryy	2ryy
16GG/L	.	.	.	.	.	.	.	.	.	.
16AA/JJ	.	.	.	.	.	.	.	.	.	.
8BB/L	.	8r	.	8r	.	.	8r	.	.	.
8C/J	.	8f#/	.	8a/	.	.	8a\	o-	.	.
=82	=82	=82	=82	=82	=82	=82	=82	=82	=82	=82
8GG/L	.	8g/L	.	(16b\LL	.	2ryy	8b\L	.	2ryy	2ryy
.	.	.	.	16a/)	.	.	.	.	.	.
8AA/	.	8f#/	.	(16cc\	.	.	8cc\J	-ra	.	.
!	!	!	!	!LO:TX:t=P:problem:mixed beam	!	!	!	!	!	!
.	.	.	.	16b\JJ)	.	.	.	.	.	.
8BB/	.	8g/	.	(16dd\LL	.	.	8dd\	pro	.	.
.	.	.	.	16cc\	.	.	.	.	.	.
8C/J	.	8g/J	.	16ee\)	.	.	8ee\	.	.	.
.	.	.	.	16g\JJ	.	.	.	.	.	.
=83	=83	=83	=83	=83	=83	=83	=83	=83	=83	=83
8D\L	.	16d/LL	.	16f#/LL	.	2ryy	16f#/LL	no-	2ryy	2ryy
.	.	16e/	.	16g/	.	.	16g\	.	.	.
8A\	.	16f#/	.	16a/	.	.	16a\	.	.	.
.	.	16g/JJ	.	16b\JJ	.	.	16b\JJ	.	.	.
8F#\	.	4a/	.	4cc\T	.	.	4cc\	.	.	.
8D\J	.	.	.	.	.	.	.	.	.	.
!LO:LB:g=original	!	!LO:LB:g=original	!	!	!	!	!	!	!	!
=84	=84	=84	=84	=84	=84	=84	=84	=84	=84	=84
!LO:TX:t=P:problem:mixed beam	!	!	!	!LO:TUP:a:problem:klamra łukowa	!	!	!	!	!	!
8G\L	.	8g/L	.	24b\LL	.	2ryy	16b\LL	.	2ryy	2ryy
.	.	.	.	24cc\	.	.	.	.	.	.
.	.	.	.	.	.	.	16dd\	.	.	.
.	.	.	.	24dd\JJ	.	.	.	.	.	.
!	!	!	!	!LO:TUP:a:problem:klamra łukowa	!	!	!	!	!	!
8C\	.	8a/	.	24cc\LL	.	.	16cc\	.	.	.
.	.	.	.	24b\	.	.	.	.	.	.
.	.	.	.	.	.	.	16b\JJ	.	.	.
.	.	.	.	24a/JJ	.	.	.	.	.	.
8D\	.	8g/	.	8g/L	.	.	8g\L	.	.	.
8DD/J	.	8f#/J	.	8a/J	.	.	8a\MJ	.	.	.
=85	=85	=85	=85	=85	=85	=85	=85	=85	=85	=85
!	!	!LO:TX:a:t=P:mixed beam:problem	!	!LO:TX:t=P:problem:mixed beam	!	!	!	!	!	!
8G\L	.	24g/LL	f	24g/LL	.	2ryy	4g\	-bis	2ryy	2ryy
.	.	24gg\	.	24bb\	.	.	.	.	.	.
.	.	24ff#\JJ	.	24aa\JJ	.	.	.	.	.	.
!	!	!	!	!LO:TUP:a:problem:klamra łukowa	!	!	!	!	!	!
8A\	.	24ee\LL	.	24gg\LL	.	.	.	.	.	.
.	.	24dd\	.	24ff#\	.	.	.	.	.	.
.	.	24cc\JJ	.	24ee\JJ	.	.	.	.	.	.
!	!	!	!	!LO:TUP:a:problem:klamra łukowa	!	!	!	!	!	!
8B\	.	24b\LL	.	24dd\LL	.	.	8r	.	.	.
.	.	24ee\	.	24gg\	.	.	.	.	.	.
.	.	24dd\JJ	.	24ff#\JJ	.	.	.	.	.	.
!	!	!	!	!LO:TUP:a:problem:klamra łukowa	!	!	!	!	!	!
8c\J	.	24cc\LL	.	24ee\LL	.	.	8cc\	pro	.	.
.	.	24b\	.	24dd\	.	.	.	.	.	.
.	.	24a\JJ	.	24cc\JJ	.	.	.	.	.	.
!	!	!	!	!LO:LB:g=original	!	!	!	!	!	!
=86	=86	=86	=86	=86	=86	=86	=86	=86	=86	=86
!LO:TX:t=P:problem:mixed beam	!	!	!	!	!	!	!	!	!	!
8d\L	.	4g/	.	8b\L	.	2ryy	12b\L	no-	2ryy	2ryy
.	.	.	.	.	.	.	12a\	.	.	.
8d\	.	.	.	(16a/L	.	.	.	.	.	.
.	.	.	.	.	.	.	12g\J	.	.	.
.	.	.	.	16g/JJ)	.	.	.	.	.	.
8D/	.	4f#/m	.	4a/T	.	.	4a\M	.	.	.
8D/J	.	.	.	.	.	.	.	.	.	.
=87	=87	=87	=87	=87	=87	=87	=87	=87	=87	=87
!LO:TX:a:t=Da Capo	!	!LO:TX:a:t=Da Capo ut finis	!	!	!	!	!	!	!	!
2ryy	.	2ryy	.	2ryy	.	2ryy	4g/	-bis	2ryy	2ryy
.	.	.	.	.	.	.	4r	.	.	.
=88	=88	=88	=88	=88	=88	=88	=88	=88	=88	=88
!	!	!	!	!	!	!	!LO:N:vis=00	!	!	!
2ryy	.	2ryy	.	2ryy	.	2ryy	0r	.	2ryy	2ryy
=89	=89	=89	=89	=89	=89	=89	=89	=89	=89	=89
2ryy	.	2ryy	.	2ryy	.	2ryy	.	.	2ryy	2ryy
=90	=90	=90	=90	=90	=90	=90	=90	=90	=90	=90
2ryy	.	2ryy	.	2ryy	.	2ryy	.	.	2ryy	2ryy
=91	=91	=91	=91	=91	=91	=91	=91	=91	=91	=91
2ryy	.	2ryy	.	2ryy	.	2ryy	.	.	2ryy	2ryy
=92	=92	=92	=92	=92	=92	=92	=92	=92	=92	=92
!	!	!	!	!	!	!	!LO:N:vis=00	!	!	!
2ryy	.	2ryy	.	2ryy	.	2ryy	0r	.	2ryy	2ryy
=93	=93	=93	=93	=93	=93	=93	=93	=93	=93	=93
2ryy	.	2ryy	.	2ryy	.	2ryy	.	.	2ryy	2ryy
=94	=94	=94	=94	=94	=94	=94	=94	=94	=94	=94
2ryy	.	2ryy	.	2ryy	.	2ryy	.	.	2ryy	2ryy
=95	=95	=95	=95	=95	=95	=95	=95	=95	=95	=95
2ryy	.	2ryy	.	2ryy	.	2ryy	.	.	2ryy	2ryy
=96	=96	=96	=96	=96	=96	=96	=96	=96	=96	=96
!	!	!	!	!	!	!	!LO:N:vis=00	!	!	!
2ryy	.	2ryy	.	2ryy	.	2ryy	0r	.	2ryy	2ryy
=97	=97	=97	=97	=97	=97	=97	=97	=97	=97	=97
2ryy	.	2ryy	.	2ryy	.	2ryy	.	.	2ryy	2ryy
=98	=98	=98	=98	=98	=98	=98	=98	=98	=98	=98
2ryy	.	2ryy	.	2ryy	.	2ryy	.	.	2ryy	2ryy
=99	=99	=99	=99	=99	=99	=99	=99	=99	=99	=99
2ryy	.	2ryy	.	2ryy	.	2ryy	.	.	2ryy	2ryy
=100	=100	=100	=100	=100	=100	=100	=100	=100	=100	=100
!	!	!	!	!	!	!	!LO:N:vis=00	!	!	!
2ryy	.	2ryy	.	2ryy	.	2ryy	0r	.	2ryy	2ryy
=101	=101	=101	=101	=101	=101	=101	=101	=101	=101	=101
2ryy	.	2ryy	.	2ryy	.	2ryy	.	.	2ryy	2ryy
=102	=102	=102	=102	=102	=102	=102	=102	=102	=102	=102
2ryy	.	2ryy	.	2ryy	.	2ryy	.	.	2ryy	2ryy
=103	=103	=103	=103	=103	=103	=103	=103	=103	=103	=103
2ryy	.	2ryy	.	2ryy	.	2ryy	.	.	2ryy	2ryy
=104	=104	=104	=104	=104	=104	=104	=104	=104	=104	=104
!	!	!	!	!	!	!	!LO:N:vis=00	!	!	!
2ryy	.	2ryy	.	2ryy	.	2ryy	0r	.	2ryy	2ryy
=105	=105	=105	=105	=105	=105	=105	=105	=105	=105	=105
2ryy	.	2ryy	.	2ryy	.	2ryy	.	.	2ryy	2ryy
=106	=106	=106	=106	=106	=106	=106	=106	=106	=106	=106
2ryy	.	2ryy	.	2ryy	.	2ryy	.	.	2ryy	2ryy
=107	=107	=107	=107	=107	=107	=107	=107	=107	=107	=107
2ryy	.	2ryy	.	2ryy	.	2ryy	.	.	2ryy	2ryy
=108	=108	=108	=108	=108	=108	=108	=108	=108	=108	=108
!	!	!	!	!	!	!	!LO:N:vis=0	!	!	!
2ryy	.	2ryy	.	2ryy	.	2ryy	1r	.	2ryy	2ryy
=109	=109	=109	=109	=109	=109	=109	=109	=109	=109	=109
2ryy	.	2ryy	.	2ryy	.	2ryy	.	.	2ryy	2ryy
==	==	==	==	==	==	==	==	==	==	==
*-	*-	*-	*-	*-	*-	*-	*-	*-	*-	*-
!!!system-decoration: [(s1,s2)][(s3,s4)][(s5,s6)]s7
!!!RDF**dynam: p = pia
!!!RDF**dynam: f = for
!!!EED: Leszek Kubiak
!!!EST: 2020-10-26
!!!ENC: Andrzej Gręziak
!!!END:2020-05-24
!!!RDF**kern: | = vertical stroke
